X: 6624
T: Cavers Of Kirkcudbright
R: jig
M: 6/8
K: Eminor
F|:Gdd dB/c/d|z ed BAG|Gdd dB/c/d|zgf edB|
Gdd dB/c/d|zed BAG|zcB AGE|zcB AGE:|
|:ecc fdg|zdd edB|ecc fdg|zab agf|
ecc fdg|zdd edB|zcB AGE|zcB AGE:|

